X:5470
T:Schottische fr Barsebck
A:Skne
M:4/4
O:Sweden
R:Schottische
Z:Richard Robinson 
%%TUNEURL: http://www.leeds.ac.uk/music/Info/RRTuneBk/gettune/000008f7.html
%%ID:000008f7
K:D
AG|\
F2AG E2AF | D2FA d2d2 |\
cege cdec |1dfdB A2 :|2 d2d2d2 :|
|:A2|\
Affd A2AA | Affd B2B2 \
|1 Bgge eccA | Aaaf fddA:|2 \
Bgge cdef | d2d2d2 :|
